X: 6077
T: Captain Bing
R: polka
M: 2/4
K: Gmajor
|:BG dG|BG GA/B/|cA eA|cA A2|BA/G/ dG|
BG GA/B/|1 cA dF|G2 G2:|2 cA FD|G2 Bd||
|:~g3d|BG GA/B/|ce a/b/a/g/|fd ef||~g3d|
BG GA/B/|1 cA dF|(G2 G)e/f/:|2 cA FD|G4||

